-----BEGIN PGP PUBLIC KEY BLOCK-----

mQINBGqEbjgBEADRPjT24OGweE/1pu7l9N5Gdq2EAagCqO0i4hPo2uLb6FXMqdkg
yUXmKSlu0v+nQgND02uUf0jkdaxzymGRK6bfcVAPPr9KgwTq0yfjZhT8dqRgyKpB
6xoIEme0b5nkirCEgTaTka8lPC3+HzCSW71RMN8F+iOXjHJ/G3PB9+OEKyQKDUir
GDurJyrnSNJuqbBwyrefgnfxmGBfc0kky3yP8lWypz6zMZQr/ZjqAKaUhBLxwIRW
OKuKYIOGs7o0dpTURm4Ya8P4PCU6u8SCAVq+8sTmAHFIifprffvEkpzvdKzvDDBe
GIaGfZ5y2zfuanTnWIcFKZzVSi/pFx99Y2YXx1k7QH9RKUbLULwR583Wtl2k1lpb
a9DPVSl3DcPsaK4TVwot1P3EJ2n25obBamNqrfu+PbtQthTvG5LAW/mrZ4BlcVqP
g0cm1DoTT7+I8t/08KTLfsxl9t9/FB2skn3mCKLgEan3g2KgJwGLLilaXPMZH3IL
CemmEaEy74aNek3prTuBzqnEZVDQGKfTctDnB26RVKte8gE8OMcrP+c/ZMmOt2m9
fuTeYsMIRsxGBytApPQlO9u2BcYRZPi8nii4x7dEiuMxAcb9JmWaxeUtTSfqa26j
Kx2q38sKGnfsUbH/FngzbqCW1CpsnEYlqV0EsXYbs4LSNQ1XV0NvHLgPYwARAQAB
tDBPUkNIQURZTiBSZWxlYXNlIFNpZ25pbmcgPHJlbGVhc2VzQGF4aXNyb2JvLmNv
bT6JAnMEEwEIAF0WIQSDBAxPCfTqWg1fMWFONOLvVPsIIgUCaoRuOBsUgAAAAAAE
AA5tYW51MiwyLjUrMS4xMiwyLDECGwMFCQWjmoAFCwkIBwICIgIGFQoJCAsCBBYC
AwECHgcCF4AACgkQTjTi71T7CCLCLg/6Az2Kq/k6Sr29kyddjXB4g/t+FTv7nXr+
gNnOSa76GTQOhysbLsGFXYX63HgbG5daxN3Nw7zInSCgCAcrwxERt4/VR1DfEt6s
MxjiVWMSgGz4jHKyZ/2wSMALZJu+cGgKR0qSCtbd10kVGBobWQL/ABzI77I9vU3r
Q/hcxKiPhZWBYOp4ZCX31QwPo5/7fRD+/rmzX360LVbbJ2spFGMpjxRfgqyZjVut
StIwHK2MHZ+fTiqhMdN7Bk7KWF7IyBedQBuzZdC3xsnAReptKdVeJeoQ8A/6csl8
Hca1axziWqPTYfjsBRZIU6g0t86yvA/iwE7/T/WGTnIWTQvH2E37H/mD2O8iLS8N
D+wNYvmYliwoBST4+zBuL1m9sBaiAXoWEliRr+HL2KH6AZFFd41IJgaByoCXL6zr
Z4tgLrhWTCLr2nB2N1Vq4qEiDRir09TtfwaWo3DQTJ49xSOFZfKShcSNQzTyeDxa
Eioj47yVmRbj83yr0u8MPSNOXVrsL9lkpzrkfKXfXjGbIyP3P9J/6645/HrHvHMB
HJFzeaErZjhPoQHTY62LFXDTsIhoMKktS1Hf/9qexvcjIozw6OkQDFXQrnrLWhgf
5EY8VE/B4EFM9m/4TN9VhHXI4NavNDqmDZszOHhOPV0rvsxK7IzYQ8HL8TIOCwik
eabD0wxJ10o=
=QzNF
-----END PGP PUBLIC KEY BLOCK-----
