-----BEGIN PGP SIGNATURE-----

iQJPBAABCAA5FiEEgwQMTwn06loNXzFhTjTi71T7CCIFAmqEcoIbFIAAAAAABAAO
bWFudTIsMi41KzEuMTIsMiwxAAoJEE404u9U+wgiwykP/iBhunwhurPI4L34TXpm
oacDACSPy7SKmVURsTSl3cj3ime1l7FJ8pgIyUf1I7j7sy/wiPKqafTjc4k5qB3c
r8RIz2SG1wqLcY1slPA17aTX/eQmuRuBTj9UoBV6WlXs+OvpYDCydK8YMROHzMFi
zNAn2q2om8oy973H4FdSyPoEZKtWulfsnEQInQqNSG2rUbhIWWJpJtZUj1ZEe00w
IyNlGPnWBudGt27u4boqyQzwJA55MZIfye1P8aFLadZZ5AeZStiWbO7Wme00bZYG
j+IgCE+YB25K8EIoPeYVHejHno25eoMDRXru3wMdC2+LC6rqMWiNj+jtfeB2W5S+
pqQr7gsZtecoMPbEpc/uLqwz3grmVa+dMZm9yLcpU2KJ3epELAzvfvAzHXmByayE
E5wAeoURd7gx77IzBeeQ8iYO2tG8llA+rMRkrZdgReCFqM7mIohkt0bvX5IIHrcp
XvR9gXj4tdevC+OKf0R9WUklkX7D2gaoxHfd7OMagtyiYCCChUwN0m7DONCQMQ7z
Wh/fnVEulE53oxx2OuiuoT/hyc45a5jYI8lbLOem5lG7ZOQG2O0ZAVx9EVUlJ7xQ
oZ9qEkeJZ6SLKpgw9H13Hi2JLyvRBzFsI2xOa3B4+dwk6gg4BzSloGiFI2Ui5EPb
+7pbBh5z+uSxlzSrV4HaA5AK
=2YOZ
-----END PGP SIGNATURE-----
