-----BEGIN PGP SIGNATURE-----

iQJPBAABCAA5FiEEgwQMTwn06loNXzFhTjTi71T7CCIFAmqEcigbFIAAAAAABAAO
bWFudTIsMi41KzEuMTIsMiwxAAoJEE404u9U+wgiiz8QALjmN3WSSs2sHQXcShDt
0OYv79/NFuvEEiQhi35wIYVLx/d/5U0H//QDxP1c/2PM8lQfzPYD8hIs3oeMBpH2
zZJCktxP3nK+qUGWtQcPyb6mHHIJzJFYpnAywSMeLuKPeM2uppSZWyQUgb0QUwWI
+aqDgzVh2BMzEzvoWv5F/c0ZVRc6NGiUAahEirdQGgEA8Tou5fyHRtabCLyuwXJ+
hIgC0xkbkVsfG7nLfzM71xSH+vJaFN+YnV7CgJNa1dzRDEBGqSBmncJMay6GLXGT
w+VgSMebZ76wKCTUgGYL5vdeaFeCUwlkr1AQbXFgYXQKsVXTp7ZG/hZX5pe8eJUb
sspljtA4XzQLoJbEqee71KBCY+JqvSsvTbS6rlbKlj74k4GRvVfUP368lvsic5sF
ncjt84YCtvowgcFVAJfvbAe0b95MtUXxWxJPj6JyUI9VSri12ZydG7UOUsu2MEdo
ggIZEBPIT18SxTGeUeTIPDTZuqnAOYm2ZFhzfzgypL9DeRzZJCDki9QXPmYQ0I3s
ZvU2DZXY0UATsgXKxFN9+g4J4fkX16nunTwQgeXL2zNyBmfGuQahOAewrm9NpE7P
cgLWOSYhxh2oekFHgltBa2di3CYp+OLnd+0nAQgzHD4wQKUQhpGGYNFi1zaJFaqf
7XUqXU2KrQy20LLdRNxbRZ0e
=rQbE
-----END PGP SIGNATURE-----
