-----BEGIN PGP SIGNATURE-----

iQJPBAABCAA5FiEEgwQMTwn06loNXzFhTjTi71T7CCIFAmqEclAbFIAAAAAABAAO
bWFudTIsMi41KzEuMTIsMiwxAAoJEE404u9U+wgi9HQP/AsTxTvRNOB3c4WgyJtj
hgsRbQRWZ8SxKJJxMwlpoxHrRFlFGiP9P6JsMkWGheQawa9cQ4gOX5KfVVX9Nek0
8MRCfkZGVenC7cAdnPKpivky/Y78ANsr3tEJSiihQ9Tdix3WdvOjScE1vvDnvUS1
4TonqfRt6IjhPCwOLbFSn2ZMlrI1qNiF40OhY69fAO2DP3Q+Z3aAYmZYe58CR66a
XXbIwYEqMhmiXoXoLsyBa3mtGkG9mxPMQYtn6dgGodqflhtPHzOpPsFNkRb23jMm
KYqtet3a3pAr9ajEMUIL9Me9M0FbInhWadC+jrj2nLbDVyh2KssTRyQ6w/zegla8
SnF86tSA3H8J6xwQHTvHsYmgK3HOaqqpUgbe8ysUHBn47OiPkLOGs2TNxcHBA7Wy
PwHZnPy7ePJT2cZuODIgjCTrf9DdTdmyQwjQ/yKSyyVTmGFcf9b8teBpkOXLfgQg
tElg0C2z20H64PxilC2ndjd6nHBdObdK0eI8xscJbaeCcPDquBBaZ+HCOAGsiMky
zTTfPZsQ975BEl2wc02MFTFKPA1hzCJgAIajXjJFi6MpXY+20w5CFGRwXwQzJqnt
q0U2ieEMZ1vgNdEl2La5N9D1w5a3f7oMSC2Jq3Fb+tJhynjfeYX2ulChRmlJVdcM
zKMv58oIAKapgqletI4sW3gi
=gHxv
-----END PGP SIGNATURE-----
