-----BEGIN PGP SIGNATURE-----

iQJPBAABCAA5FiEEgwQMTwn06loNXzFhTjTi71T7CCIFAmqEczQbFIAAAAAABAAO
bWFudTIsMi41KzEuMTIsMiwxAAoJEE404u9U+wgiDZoP/R3lN8OWS9/A9FNTZbrS
WB3o2OYWGcIrzACwAwXe2G8r9VyWuNkdgVvH7HxNSOaKgMn+8ewJlOSlBPlgH5io
AuByqf7IZWPgysqSAYf8R9r2qzqvs4z+RdyOtbmMVNG5gtPIk/kvNcHaLywbixno
Y2G5V8X8MilVsBNPVafC/toRXhOVmvlGTtklVKJXl4jutYkPAV9RWsiROTu1BuFs
d2xAgDZFib07HcAzG3hdXMjbwCUDrJD4HAh/gqDx0GGQ3eDdIJiTS06EFcGFgfUN
d9b1pwuJhDGrnf+EHImlmVKftkacmvyvUm9ilNyZUxYq2bxlF7JKVCb1xJmZUx2f
+Bt9bWhAlUauLHFsVIrIoxMDxXbVp0a/gVmTatVKgmF8/t/lX6PhiJOTDQ08tJwd
DqM6rE07u0bMRTLdGP1uf/u/Q9VSjz/AoGCrtkZgdOy+oOPCwvawjN9R1JWh49Ku
BVri2swai/LO3Go7S5MnbAQGt/CevB/MY/XDTw7jqfh++eNip+V5+eGSQEwiIg7z
Fk8XIJ1gPNsJVNepPkmab4R9ra4b4cjYyIEMhB33kKq4G2PzXDprwIIc7CDBS7PK
QixG0d1sdpd+xf8NvZdkTu25DwWyW7BuojCTs5DR8NFjxGERXPmAI4OV4IayhINO
HL7n+c7RGyuBS9sP5RNF0JQe
=/z/h
-----END PGP SIGNATURE-----
