-----BEGIN PGP SIGNATURE-----

iQJPBAABCAA5FiEEgwQMTwn06loNXzFhTjTi71T7CCIFAmqEcAAbFIAAAAAABAAO
bWFudTIsMi41KzEuMTIsMiwxAAoJEE404u9U+wgiy9oP/0W0xjny1dc82tc92kto
tWUjVwjyIXCdomLXaYHOGeywmCo0iFQVIQpnaDJSamLhEVxc2Zd6wWx39EuIGnEI
QBSLxdiRZqAWWZln3fP6xAdKqck5SzIhd86O6+jL3j4XG3YL++If4ZyMRRSzTzgz
22egrF/BMEU3cjMomPlwNE2rfeP++nZt25x2tYnPo7+w/czmazUiUhTnYJd50e4h
rQ+gkoG1A/9MxEyl56GuAGYXrRVzxdS7u8UizmRQBRMLw6L2OYxg5v9UKclGphn8
sghJffdEhEsUCM616oIN3h+Si0kmuAvBWf2Tz8cVRz8SrcA3q0In+geZYWhDvRVY
4JnBOyQk1XmbgCzrZJOas722kSkWBnlMW/xCmVpE+B8tXpmPlCRnmrDGJmRnX510
M3srlEIK60DZyp7He+IFt+k5Gf+J+tR3kJe84MsGAmVpnWYn/ItnLqUpIftz7ji4
Y+V+dfCQT82sbmBUvA3Rh4wgybsqTVXJRnVAgqz6Os5cufez5A0J3YhEdtrCdUwI
M/+yH8pnSDHwiUc9x8FfTP9hNTQjU0Xvh9/VJ/yWY1RSKv1g7tAGogHWQyp/k84p
r2qLbkVzKPFos5RJePoV0TZUXfF7HTSQ6+8htE1s00mZZSj2kOocPV4w7ZkkQxdq
UEeP7DyWRlLrH/UM9aTK01g6
=zgDD
-----END PGP SIGNATURE-----
